packages/core/src/svgs/tokens/branded/TTK.svg

<svg width="24" height="24" viewBox="0 0 24 24" fill="none" xmlns="http://www.w3.org/2000/svg">
<path d="M3.77069 17.676C2.53596 15.888 1.92071 13.745 2.01897 11.5744C2.55537 11.9174 3.14852 12.1622 3.77069 12.2975V17.676Z" fill="url(#paint0_linear_364_11921)"/>
<path d="M9.06006 21.556C8.08662 21.2575 7.16477 20.8115 6.32666 20.2334H8.47222V20.8212H9.06006V21.556Z" fill="url(#paint1_linear_364_11921)"/>
<path d="M10.2358 21.8441V20.8213H10.5298V20.2334H10.8236V12.0038H10.5298V11.416H10.2358V10.2404H13.7628V11.416H13.4688V12.0038H13.1749V20.2334H13.4688V20.8213H13.7628V21.8441C12.5964 22.052 11.4022 22.052 10.2358 21.8441Z" fill="url(#paint2_linear_364_11921)"/>
<path d="M17.6713 20.2334C16.8424 20.8035 15.9196 21.2562 14.938 21.556V20.8212H15.5257V20.2334H17.6713Z" fill="url(#paint3_linear_364_11921)"/>
<path d="M18.4649 12.5917H14.938V13.7673H15.2318V14.3551H15.5257V19.6455H17.877V14.3551H18.171V13.7673H18.4649V12.5917Z" fill="url(#paint4_linear_364_11921)"/>
<path d="M9.06017 12.5917H5.5332V13.7673H5.82711V14.3551H6.12103V19.6455H8.47233V14.3551H8.76625V13.7673H9.06017V12.5917Z" fill="url(#paint5_linear_364_11921)"/>
<path d="M19.6406 18.4406C21.3251 16.4469 22.1589 13.8715 21.9626 11.269H21.9508C21.9208 11.3199 21.8762 11.3606 21.8227 11.3859C21.7692 11.411 21.7094 11.4195 21.651 11.4102C21.0632 11.6805 20.2872 12.0038 19.6406 12.0038V18.4406Z" fill="url(#paint6_linear_364_11921)"/>
<path d="M21.9334 10.9458C21.8987 10.8982 21.8507 10.8621 21.7953 10.8422C21.74 10.8223 21.6799 10.8194 21.623 10.834C21.5659 10.8485 21.5146 10.8799 21.4757 10.924C21.4367 10.968 21.4119 11.0226 21.4042 11.081C19.7701 10.9164 18.6416 10.2992 18.277 9.63493C18.3426 9.6112 18.3974 9.56498 18.432 9.50449C18.4666 9.44414 18.4786 9.37336 18.4659 9.30492C18.4532 9.23646 18.4166 9.17474 18.3626 9.13076C18.3087 9.08675 18.2408 9.06334 18.1712 9.0647C17.8773 9.0647 17.8773 9.35855 17.8773 9.35855V9.65248H14.9383V8.77078C16.3489 8.77078 17.4835 8.18295 17.8773 7.88904C16.1961 7.94782 15.4084 7.28946 15.1027 6.68988C15.2076 6.6593 15.3017 6.60016 15.3748 6.51906C15.4479 6.43797 15.497 6.33812 15.5165 6.23071C15.536 6.12331 15.5253 6.01258 15.4854 5.91095C15.4456 5.80933 15.3783 5.7208 15.2909 5.6553C15.2035 5.5898 15.0997 5.54992 14.9909 5.54011C14.8823 5.5303 14.773 5.55097 14.6753 5.59979C14.5777 5.64862 14.4955 5.72366 14.4382 5.81651C14.3807 5.90938 14.3504 6.0164 14.3504 6.12556H9.64774C9.64774 6.0164 9.61729 5.90938 9.55996 5.81651C9.50263 5.72366 9.42047 5.64862 9.32281 5.59979C9.22517 5.55097 9.11586 5.5303 9.00714 5.54011C8.89841 5.54992 8.79457 5.5898 8.70722 5.6553C8.6199 5.7208 8.55252 5.80933 8.51268 5.91095C8.47282 6.01258 8.46205 6.12331 8.48158 6.23071C8.5011 6.33812 8.55016 6.43797 8.62324 6.51906C8.69632 6.60016 8.79054 6.6593 8.89534 6.68988C8.77777 6.93676 8.62493 7.13662 8.43683 7.29534L3.48145 6.77804C3.61664 6.55468 3.76361 6.33717 3.91645 6.12556H7.29644L4.3044 5.6259C5.2577 4.47081 6.45884 3.54519 7.81873 2.91771C9.17861 2.29024 10.6623 1.97703 12.1598 2.00131C13.6573 2.02559 15.13 2.38674 16.469 3.05797C17.8078 3.72921 18.9783 4.69327 19.8936 5.87867L16.1139 6.41947L20.4637 6.68988C20.5872 6.88973 20.7047 7.09547 20.8165 7.30121H17.2894L21.0868 7.84202C21.5385 8.82518 21.8264 9.8755 21.9392 10.9517L21.9334 10.9458Z" fill="url(#paint7_linear_364_11921)"/>
<path d="M2.30055 10.8282C2.25493 10.8282 2.20993 10.8388 2.16911 10.8592C2.1283 10.8797 2.09281 10.9093 2.06543 10.9458C2.18299 9.74658 2.52393 8.61207 3.04121 7.57162L8.43746 7.29535C7.76146 7.87142 6.72101 7.9537 6.12143 7.88904C6.35656 8.59444 7.78498 8.77079 8.47273 8.77079V9.65249H6.12143V9.35856C6.12143 9.30054 6.10419 9.24366 6.0719 9.19532C6.0396 9.14699 5.99369 9.10933 5.93999 9.08708C5.88628 9.06483 5.82718 9.059 5.77018 9.07035C5.71316 9.08169 5.66079 9.10968 5.61969 9.15079C5.57858 9.1919 5.55058 9.24426 5.53924 9.30123C5.52791 9.35828 5.53373 9.4174 5.55598 9.47103C5.57822 9.5248 5.61589 9.57074 5.66422 9.60298C5.71256 9.63535 5.76938 9.65249 5.82751 9.65249C5.14564 10.8458 3.75836 11.081 2.59447 11.1222C2.59447 11.0441 2.5635 10.9694 2.50839 10.9142C2.45326 10.8591 2.37851 10.8282 2.30055 10.8282Z" fill="url(#paint8_linear_364_11921)"/>
<defs>
<linearGradient id="paint0_linear_364_11921" x1="12.0003" y1="2.01043" x2="12.0003" y2="21.9966" gradientUnits="userSpaceOnUse">
<stop offset="0.71" stop-color="#C9AF67"/>
<stop offset="1" stop-color="#A58C51"/>
</linearGradient>
<linearGradient id="paint1_linear_364_11921" x1="43.4171" y1="-273.554" x2="43.4171" y2="28.6666" gradientUnits="userSpaceOnUse">
<stop offset="0.71" stop-color="#C9AF67"/>
<stop offset="1" stop-color="#A58C51"/>
</linearGradient>
<linearGradient id="paint2_linear_364_11921" x1="12.0281" y1="-11.9963" x2="12.0281" y2="21.9948" gradientUnits="userSpaceOnUse">
<stop offset="0.71" stop-color="#C9AF67"/>
<stop offset="1" stop-color="#A58C51"/>
</linearGradient>
<linearGradient id="paint3_linear_364_11921" x1="-19.3615" y1="-273.554" x2="-19.3615" y2="28.6666" gradientUnits="userSpaceOnUse">
<stop offset="0.71" stop-color="#C9AF67"/>
<stop offset="1" stop-color="#A58C51"/>
</linearGradient>
<linearGradient id="paint4_linear_364_11921" x1="-14.5406" y1="-27.9999" x2="-14.5406" y2="28.6666" gradientUnits="userSpaceOnUse">
<stop offset="0.71" stop-color="#C9AF67"/>
<stop offset="1" stop-color="#A58C51"/>
</linearGradient>
<linearGradient id="paint5_linear_364_11921" x1="38.5963" y1="-27.9999" x2="38.5963" y2="28.6666" gradientUnits="userSpaceOnUse">
<stop offset="0.71" stop-color="#C9AF67"/>
<stop offset="1" stop-color="#A58C51"/>
</linearGradient>
<linearGradient id="paint6_linear_364_11921" x1="-62.7277" y1="-23.8197" x2="-62.7277" y2="31.918" gradientUnits="userSpaceOnUse">
<stop offset="0.71" stop-color="#C9AF67"/>
<stop offset="1" stop-color="#A58C51"/>
</linearGradient>
<linearGradient id="paint7_linear_364_11921" x1="11.26" y1="2.02372" x2="11.26" y2="46.0413" gradientUnits="userSpaceOnUse">
<stop stop-color="#927A47"/>
<stop offset="0.4" stop-color="#CAB067"/>
<stop offset="0.71" stop-color="#C9AF67"/>
</linearGradient>
<linearGradient id="paint8_linear_364_11921" x1="11.9997" y1="2.01096" x2="11.9997" y2="21.9971" gradientUnits="userSpaceOnUse">
<stop stop-color="#927A47"/>
<stop offset="0.4" stop-color="#CAB067"/>
<stop offset="0.71" stop-color="#C9AF67"/>
</linearGradient>
</defs>
</svg>

<svg xmlns="http://www.w3.org/2000/svg" width="24" height="24" fill="none" viewBox="0 0 24 24">
    <path fill="url(#TTK__a)" d="M3.77 17.676a9.95 9.95 0 0 1-1.751-6.102 5.4 5.4 0 0 0 1.752.723z"/>
    <path fill="url(#TTK__b)" d="M9.06 21.556a10 10 0 0 1-2.733-1.323h2.145v.588h.588z"/>
    <path fill="url(#TTK__c)" d="M10.236 21.844v-1.023h.294v-.588h.294v-8.23h-.294v-.587h-.294V10.24h3.527v1.176h-.294v.588h-.294v8.23h.294v.587h.294v1.023a10 10 0 0 1-3.527 0"/>
    <path fill="url(#TTK__d)" d="M17.671 20.233a10 10 0 0 1-2.733 1.323v-.735h.588v-.588z"/>
    <path fill="url(#TTK__e)" d="M18.465 12.592h-3.527v1.175h.294v.588h.294v5.29h2.351v-5.29h.294v-.588h.294z"/>
    <path fill="url(#TTK__f)" d="M9.06 12.592H5.533v1.175h.294v.588h.294v5.29h2.351v-5.29h.294v-.588h.294z"/>
    <path fill="url(#TTK__g)" d="M19.64 18.44a9.95 9.95 0 0 0 2.323-7.171h-.012a.295.295 0 0 1-.3.141c-.588.27-1.364.594-2.01.594z"/>
    <path fill="url(#TTK__h)" d="M21.933 10.946a.294.294 0 0 0-.529.135c-1.634-.165-2.762-.782-3.127-1.446a.294.294 0 0 0-.106-.57c-.294 0-.294.294-.294.294v.293h-2.939v-.881c1.41 0 2.545-.588 2.94-.882-1.682.059-2.47-.6-2.775-1.2a.588.588 0 1 0-.753-.563H9.648a.588.588 0 1 0-.753.564q-.176.37-.458.605L3.48 6.778q.205-.334.435-.652h3.38l-2.992-.5a9.976 9.976 0 0 1 15.59.253l-3.78.54 4.35.27q.184.301.353.612h-3.528l3.798.541c.451.983.74 2.034.852 3.11z"/>
    <path fill="url(#TTK__i)" d="M2.3 10.828a.3.3 0 0 0-.235.118c.118-1.2.459-2.334.976-3.374l5.396-.277c-.676.576-1.716.659-2.316.594.236.705 1.664.882 2.352.882v.881H6.12V9.36a.294.294 0 1 0-.293.293c-.682 1.194-2.07 1.429-3.234 1.47a.294.294 0 0 0-.293-.294"/>
    <defs>
        <linearGradient id="TTK__a" x1="12" x2="12" y1="2.01" y2="21.997" gradientUnits="userSpaceOnUse">
            <stop offset=".71" stop-color="#C9AF67"/>
            <stop offset="1" stop-color="#A58C51"/>
        </linearGradient>
        <linearGradient id="TTK__b" x1="43.417" x2="43.417" y1="-273.554" y2="28.667" gradientUnits="userSpaceOnUse">
            <stop offset=".71" stop-color="#C9AF67"/>
            <stop offset="1" stop-color="#A58C51"/>
        </linearGradient>
        <linearGradient id="TTK__c" x1="12.028" x2="12.028" y1="-11.996" y2="21.995" gradientUnits="userSpaceOnUse">
            <stop offset=".71" stop-color="#C9AF67"/>
            <stop offset="1" stop-color="#A58C51"/>
        </linearGradient>
        <linearGradient id="TTK__d" x1="-19.361" x2="-19.361" y1="-273.554" y2="28.667" gradientUnits="userSpaceOnUse">
            <stop offset=".71" stop-color="#C9AF67"/>
            <stop offset="1" stop-color="#A58C51"/>
        </linearGradient>
        <linearGradient id="TTK__e" x1="-14.541" x2="-14.541" y1="-28" y2="28.667" gradientUnits="userSpaceOnUse">
            <stop offset=".71" stop-color="#C9AF67"/>
            <stop offset="1" stop-color="#A58C51"/>
        </linearGradient>
        <linearGradient id="TTK__f" x1="38.596" x2="38.596" y1="-28" y2="28.667" gradientUnits="userSpaceOnUse">
            <stop offset=".71" stop-color="#C9AF67"/>
            <stop offset="1" stop-color="#A58C51"/>
        </linearGradient>
        <linearGradient id="TTK__g" x1="-62.728" x2="-62.728" y1="-23.82" y2="31.918" gradientUnits="userSpaceOnUse">
            <stop offset=".71" stop-color="#C9AF67"/>
            <stop offset="1" stop-color="#A58C51"/>
        </linearGradient>
        <linearGradient id="TTK__h" x1="11.26" x2="11.26" y1="2.024" y2="46.041" gradientUnits="userSpaceOnUse">
            <stop stop-color="#927A47"/>
            <stop offset=".4" stop-color="#CAB067"/>
            <stop offset=".71" stop-color="#C9AF67"/>
        </linearGradient>
        <linearGradient id="TTK__i" x1="12" x2="12" y1="2.011" y2="21.997" gradientUnits="userSpaceOnUse">
            <stop stop-color="#927A47"/>
            <stop offset=".4" stop-color="#CAB067"/>
            <stop offset=".71" stop-color="#C9AF67"/>
        </linearGradient>
    </defs>
</svg>
